!!!COM: Scriabin, Alexander
!!!OTL: Mazurka
!!!OPR: 2 Mazurkas
!!!OPS: 40
!!!ONM: 2
!!!ODT: 1903
!!!AGN: Mazurka
**kern	**kern
*staff2	*staff1
*Ipiano	*Ipiano
*clefF4	*clefG2
*k[f#c#g#d#a#e#]	*k[f#c#g#d#a#e#]
*F#:	*F#:
*M3/4	*M3/4
=1	=1
8r	4A# 4c#
8C#	.
8D#L	4r
8E#J	.
4A#	4r
=2	=2
8r	4A# 4c# 4e#
8F#	.
8G#L	4r
8A#J	.
4e#	4r
=3	=3
*^	*
2d#	2.F#	8r
.	.	8G#
.	.	8A#L
.	.	8B#X
4B#X	.	8d#
.	.	8g#J
=4	=4	=4
*	*^	*^
4e#	2.A#	2.E#\	8dd#L	4g#
.	.	.	8cc#	.
4c#	.	.	8a#	4rc
.	.	.	8g#	.
4rc	.	.	8e#	4rc
.	.	.	8c#J	.
=5	=5	=5	=5	=5
4rc	4rEE	2.D#\	2.ryy	8r
.	.	.	.	8e#
4e#	2c#	.	.	8G##XL
.	.	.	.	8A#J
4f##X	.	.	.	[4d#
*	*v	*v	*	*
=6	=6	=6	=6
2g#	4e#	2.ryy	8d#L]
.	.	.	8c#J
.	4c#	.	8D##XL
.	.	.	8E#J
4rc	4c# 4g#	.	[4B#X
*v	*v	*	*
=7	=7	=7
4r	4c# 4f#	8B#L]
.	.	8A#J
4.G#	4c# 4a#	4rc
.	4c# 4a#	4rc
8F#	.	.
*	*v	*v
=8	=8
8E#L	4F# 4G# 4c# 4g#
8GG#	.
8AA#	4F# 4G# 4d#
8BB#X	.
8D#	4E# 4G# 4e#
8C#J	.
*clefG2	*
=9	=9
*^	*
4raa	2.c#	8r
.	.	8cc#
2B 2e# 2a#	.	8dd#L
.	.	8ee#J
.	.	4ccc#
=10	=10	=10
4raa	2.c#	8r
.	.	8cc#
2B 2e# 2an	.	8dd#L
.	.	8ee#J
.	.	4ddd#
=11	=11	=11
4raa	2.c#	8r
.	.	8cc#L
2A#X 2e# 2g#	.	8dd#
.	.	8ee#
.	.	8gg#
.	.	8ccc#J
=12	=12	=12
*	*^	*
4a#	2.c#	2.A#\ 2.d#	8ggg#L
.	.	.	8fff#
4f#	.	.	8ddd#
.	.	.	8ccc#
4raa	.	.	8aa#
.	.	.	8ff#J
*	*v	*v	*
=13	=13	=13
4G#	4rc	8r
.	.	8aa#
4cc#X	2f#	8cc##XL
.	.	8dd#J
4b#X	.	[4gg#
*clefF4	*	*
=14	=14	=14
4C#	4rEE	8gg#L]
.	.	8ff#
*clefG2	*	*
2f#	4c#	8g##X
.	.	8a#J
.	4B#X	[4ee#
*clefF4	*	*
=15	=15	=15
4rc	4C#	8ee#L]
.	.	8dd#
2f#	4Bn	8cc#
.	.	8c##X
.	4G#	8d#
.	.	8bJ
*v	*v	*
=16	=16
*	*^
4C#	8a#L	8rc
.	8B	[8B
[4CC#	8c#X	4B] [4c#
.	8e#	.
4FFF# 4CC#] 4FF#	8g#	4A# 4c#]
.	8f#J	.
*	*v	*v
=17||	=17||
*k[f#c#g#d#a#e#b#]	*k[f#c#g#d#a#e#b#]
8GG#L	4r
8CC#	.
8GG#	4G# 4c# 4e#
8C#J	.
4D#	4F# 4A# 4d#
=18	=18
8GG#L	4r
8CC#	.
8GG#	4G# 4c#
8E#J	.
4F#	4A#
=19	=19
4GG# 4F#	8r
.	8A#
4CC#	8c#L
.	8d#J
4r	8f#L
.	16r
.	16a#Jk
=20	=20
*	*^
4r	2e# 2ee#	4rc
4F# 4c# 4f#	.	4a#
4F# 4c# 4f#	4d# 4dd#	4a#
=21	=21	=21
4CC#	8raa	4rc
.	8cc#	.
2GG# 2F#	4.b#	2c# 2f#
.	8a#	.
=22	=22	=22
4CC#	8raa	4rc
.	8a#	.
2GG# 2D# 2F#	4.g#	2A# 2c#
.	8f#	.
=23	=23	=23
*^	*	*
4rc	2.CC#	8raa	4rc
.	.	8f#L	.
2GG# 2F#	.	8e#	2A# 2c#
.	.	8a#	.
.	.	8f#	.
.	.	8e#J	.
*v	*v	*	*
=24	=24	=24
2.CC# 2.GG# 2.F#	8e#L	2A# 2c#
.	8A#	.
.	8c#	.
.	8d#	.
.	8g#	4B#
.	8G#J	.
*	*v	*v
=25	=25
8GG#L	4r
8CC#	.
8GG#	4G# 4c# 4e#
8C#J	.
4D#	4F# 4A# 4d#
=26	=26
8GG#L	4r
8CC#	.
8GG#	4G# 4c#
8E#J	.
4F#	4A#
=27	=27
*^	*
2.GG# 2.F# 2.A#	4rEE	8r
.	.	8c#
.	2CC#	8d#L
.	.	8f#J
.	.	8a#L
.	.	16r
.	.	16cc#Jk
*v	*v	*
=28	=28
*	*^
4r	2g# 2gg#	4rc
4E# 4A# 4e#	.	4cc#
4D# 4A# 4d#	4f# 4ff#	4cc#
=29	=29	=29
*^	*	*
4rc	2.CC#	8raa	4rc
.	.	8ff#	.
2GG# 2F# 2c#	.	4.ee#	2f# 2a#
.	.	8dd#	.
=30	=30	=30	=30
4rc	2.CC#	8raa	4rc
.	.	8cc#	.
2GG# 2F#	.	4.b#	2c# 2f#
.	.	8a#	.
=31	=31	=31	=31
4rc	2.CC#	8raa	4rc
.	.	8a#L	.
[2GG# [2F#	.	8g#	2c# 2d#
.	.	8cc#	.
.	.	8a#	.
.	.	8f#J	.
*v	*v	*	*
=32	=32	=32
2GG#] 2F#]	8e#L	2B#
.	8b#	.
.	8g#	.
.	8e#J	.
24GG#LL 24E#	36c#LL	12c#
.	36e#	.
24CC#JJ	.	.
.	36g#J	.
6Bn	12dd#	12rc
.	12cc#J	12rc
*	*v	*v
=33||	=33||
*k[f#c#g#d#a#e#]	*k[f#c#g#d#a#e#]
8r	4A# 4c#
8C#	.
8D#L	4r
8E#J	.
4A#	4r
=34	=34
8r	4A# 4c# 4e#
8F#	.
8G#L	4r
8A#J	.
4e#	4r
=35	=35
*^	*
2d#	2.F#	8r
.	.	8G#
.	.	8A#L
.	.	8B#X
4B#X	.	8d#
.	.	8g#J
=36	=36	=36
*	*^	*^
4e#	2.A#	2.E#\	8dd#L	4g#
.	.	.	8cc#	.
4c#	.	.	8a#	4rc
.	.	.	8g#	.
4rc	.	.	8e#	4rc
.	.	.	8c#J	.
=37	=37	=37	=37	=37
4rc	4rEE	2.D#\	2.ryy	8r
.	.	.	.	8e#
4e#	2c#	.	.	8G##XL
.	.	.	.	8A#J
4f##X	.	.	.	[4d#
*	*v	*v	*	*
=38	=38	=38	=38
2g#	4e#	2.ryy	8d#L]
.	.	.	8c#J
.	4c#	.	8D##XL
.	.	.	8E#J
4rc	4c# 4g#	.	[4B#X
*v	*v	*	*
=39	=39	=39
4r	4c# 4f#	8B#L]
.	.	8A#J
4.G#	4c# 4a#	4rc
.	4c# 4a#	4rc
8F#	.	.
*	*v	*v
=40	=40
8E#L	4F# 4G# 4c# 4g#
8GG#	.
8AA#	4F# 4G# 4d#
8BB#X	.
8D#	4E# 4G# 4e#
8C#J	.
*clefG2	*
=41	=41
*^	*
4raa	2.c#	8r
.	.	8cc#
2B 2e# 2a#	.	8dd#L
.	.	8ee#J
.	.	4ccc#
=42	=42	=42
4raa	2.c#	8r
.	.	8cc#
2B 2e# 2an	.	8dd#L
.	.	8ee#J
.	.	4ddd#
=43	=43	=43
4raa	2.c#	8r
.	.	8cc#L
2A#X 2e# 2g#	.	8dd#
.	.	8ee#
.	.	8gg#
.	.	8ccc#J
=44	=44	=44
*	*^	*
4a#	2.c#	2.A#\ 2.d#	8ggg#L
.	.	.	8fff#
4f#	.	.	8ddd#
.	.	.	8ccc#
4raa	.	.	8aa#
.	.	.	8ff#J
*	*v	*v	*
=45	=45	=45
4G#	4rc	8r
.	.	8aa#
4cc#X	2f#	8cc##XL
.	.	8dd#J
4b#X	.	[4gg#
*clefF4	*	*
=46	=46	=46
4C#	4rEE	8gg#L]
.	.	8ff#
*clefG2	*	*
2f#	4c#	8g##X
.	.	8a#J
.	4B#X	[4ee#
*clefF4	*	*
=47	=47	=47
4rc	4C#	8ee#L]
.	.	8dd#
2f#	4Bn	8cc#
.	.	8c##X
.	4G#	8d#
.	.	8bJ
*v	*v	*
=48	=48
*	*^
4C#	8a#L	8rc
.	8B	[8B
[4CC#	8c#X	4B] [4c#
.	8e#	.
4FFF# 4CC#] 4FF#	8g#	4A# 4c#]
.	8f#J	.
*	*v	*v
==	==
*-	*-
!!!system-decoration: {(*)}
!!!ENC: Bryan Jacob Bell
!!!END: November 2021 to April 2022
!!!PED: Günter Philipp
!!!PTL: Ausgewählte Klavierwerke (Edition Peters)
